X:185
T:Steirer
C:traditionell
R:Steirer
A:Bad Ischl, Salzkammergut
B:"Pfeifermusik aus Bad Ischl", Lois Blamberger, 3. Auflage, Bad Ischl 1990
S:im buch mit der Angabe: aus der Sammlung vom Blamberger Lois
N:im buch in G, nr. 20/4
Z:abc transcription Simon Wascher
M:3/4
L:1/8
K:G
V:1
Gc c3 B | Bz Fd dz | Fc c3 B | Bz Gd dz |\
Gc c3 B | Az fede | fz Fz Fx | G2 z2 z2 :|
V:2
Be e3 d | dz cf fz | ce e3 d | dz Bg gz |\
Be e3 d | cz agfg | az cz cx | B2 z2 z2 :|
